X:1
T:Title
%%score 1 2 { 3 | 4 }
L:1/8
Q:1/4=103
M:3/4
K:C
V:1 treble nm="Grand Piano, Soprano"
V:2 treble nm="Grand Piano, Staff-1"
V:3 bass nm="Choir Pad, Songs of the Beautiful"
V:4 bass 
V:1
 G2 G4 | c>d e3 d | c2 c4 | B>A G4 | G2 G2 c2 | d2 e4 | f>e e2 d2 | ^c2 d4 | GG G2 c2 | d2 e2 d2 | %10
w: By~William~Batchelder~Bradbury *||||||||||
 e2 f2 c2 | d2 e4 | e2 e2 _e2 | e2 A4 | d>c B2 A2 | B2 c4 | [EG]2 [EG]4 | %17
w: |||||||
 [FA]>[FB] [Ec]>[FB] [Ec]2- | [Ec]2 [Fd]4 | [Ec]>[Fd] [Ge]>[Fd] [Ec]2- | [Ec]2 [Fc]4 | %21
w: ||||
 [FB]>[FA] [EG]>[CE] [EG]2- | [EG]2 [DB]2 [Ec]2 | [Fd]2 [Ec]4 | [EG]2 [EG]4 | %25
w: ||||
 [CF]>[CF] [CE]>[DF] [EG]2- | [EG]2 [FB]4 | [FA]>[FB] [Ec]>[FG] [EG]2- | [EG]2 [FA]4 | %29
w: ||||
 [FB]>[Fc] [Ec]>[CG] [EG]2- | [EG]2 [DG]2 [EG]2 | [FG]2 [EG]4- | [EG]4 z2 |] %33
w: ||||
V:2
 z2 z2 [G,CE]2 | [G,CE]2 z2 [G,CE]2 | [G,CE]2 z2 [A,CF]2 | [A,CF]2 z2 [G,CE]2 | %4
 [G,CE]2 z2 [G,CE]2 | [G,CE]2 z2 [G,CE]2 | [G,CE]2 z2 [G,B,F]2 | [G,B,F]2 z2 [G,B,F]2 | %8
 [G,B,F]2 z G, CD | B,G, z G, CD | B,G, z A,[K:treble] CF | CA, z G, CD | B,G, z G, CE | %13
 CA, z A,[K:treble] DF | DA, z B, FG | FB, z2 [G,CE]2 | z6 | z6 | z6 | z6 | z6 | z6 | z6 | z6 | %24
 z6 | z6 | z6 | z6 | z6 | z6 | z6 | z6 | z6 |] %33
V:3
 z2 C,4- | C,2 C,4- | C,2 F,4- | F,2 C,4- | C,2 C,4- | C,2 C,4- | C,2 G,4- | G,2 G,4 | z2 C,4- | %9
 C,2 C,4- | C,2 C,4- | C,2 C,4- | C,2 C,4- | C,2 F,4- | F,2 G,4- | G,2 C,4 | C2 C4 | %17
 C>G, G,>[K:bass]G, G,2- | G,2 B,4 | C>B, C>G, G,2- | G,2 A,4 | B,>[K:treble]C C>G, C2- | %22
 C2[K:bass] G,2 G,2 | G,2 G,4 | G,2 G,4 | A,>B,[K:treble] C>B, C2- | C2 D4 | C>C E>D C2- | C2 C4 | %29
 B,>A, G,>E, G,2- | G,2[K:treble] B,2 C2 | D2 C4- | C4 z2 |] %33
V:4
 z6 | z6 | z6 | z6 | z6 | z6 | z6 | z6 | z6 | z6 | z6 | z6 | z6 | z6 | z6 | z6 | C,2 C,4 | %17
 C,>C, C,>C, C,2- | C,2 G,4 | G,>G, C,>C, C,2- | C,2 F,4 | F,>F, C,>C, C,2- | C,2 z2 z2 | z2 C,4 | %24
 C,2 C,4 | C,>C, C,>C, C,2- | C,2 [G,,G,]4 | [G,,G,]>[G,,G,] C,>C, C,2- | C,2 F,4 | %29
 F,>F, C,>C, C,2- | C,2 G,,2 G,,2 | G,,2 C,4- | C,4 z2 |] %33

